X:1
T:Trækfuglene
T:Trækfuglene
T:F. A. Reissiger
C:F. A. Reissiger
%%score [ 1 2 3 4 ]
L:1/8
Q:1/4=74
M:4/4
K:Db
V:1 treble-8 nm="T1"
V:2 treble-8 nm="T2"
V:3 bass nm="B1"
V:4 bass nm="B2"
V:1
"^Moderato con moto"!p! f2 | d2 d!<(! d d2!<)! d d | !>!d2!>(! c3/2 c/!>)! c2 (d>c) | %3
w: 1.Se|Fug- le- nes Ska- re! til|frem- me- de Land de _|
w: 2.Med|Sorg vi for- la- de de|Skan- di- ske Skjærm vi _|
 B2 B c d2 d!f! e | f2 f3/2 f/ f2 z!mf! c | !>!e2 B c d2 A d | !>!e2 B c!<(! d2!<)!!>(! f2!>)! | %7
w: suk- ken- de fa- re fra|nor- di- ske Strand; i|Vei- ret de sen- de sin|Kla- ge- lyd ud: "Hvor|
w: va- re saa gla- de, saa|sa- li- ge der! I|löv- tæt- te Lin- de vor|Re- de fandt Hegn, med|
 e2 d d (!>!d>c) B f | (ed) c c !fermata!c3 F | _G2 F =A!<(! (Bc)!<)! d e |!f! f4 =A3 A | B4 z2 :| %12
w: skul- le vi lan- * de, hvor|vin- * ker dit Bud?" saa|raa- ber de fje- * dre- de|Ska- rer til|Gud!|
w: gyn- gen- de Vin- * de kom|Blom- * ster- duft- regn; nu|stræk- ker vor Vin- * ge mod|u- kjend- te|Egn!|
!p! f2 | d2 d!<(! d d2!<)! d d | !>!d2!>(! c3/2 c/!>)! c2 (d>c) | B2!<(! B c!<)! d2 d!f! e | %16
w: 3.Naar|grumt sig om- skif- ter dit|jor- di- ske Vel; naar _|Stor- men vildt vif- ter, for-|
w: ||||
 f2 f3/2 f/ !fermata!f3 ||[K:Bb]!p![Q:1/4=62]"^Poco più lento" F | d2 d d d2 d g | c2 c c c2 d2 | %20
w: sag ei, o Sjæl!|Bag|Ha- vet staar Ha- ven paa|fred- som- me Strand; paa|
w: ||||
 B2!<(! B B!<)! e2!>(! d3/2 d/!>)! | d2 c B c2!f! c2 | f4 f2 =e2 | _e6 d d | g4 f2 f2 | %25
w: hin Si- de Gra- ven er|og- saa et Land, for-|gyldt af en|Sol, som for-|dun- kles ei|
w: |||||
 !fermata!d6 |] %26
w: kan!|
w: |
V:2
!p! d2 | B2 B!<(! B B2!<)! B B | !>!B2!>(! =A3/2 A/!>)! A2 A2 | B2 B =A B2 B!f! c | %4
w: 1.Se|Fug- le- nes Ska- re! til|frem- me- de Land de|suk- ken- de fa- re fra|
w: 2.Med|Sorg vi for- la- de de|Skan- di- ske Skjærm vi|va- re saa gla- de, saa|
 d2 d3/2 d/ c2 z!mf! =A | !>!B2 B __B A2 A A | !>!A2 A A!<(! A2!<)!!>(! d2!>)! | %7
w: nor- di- ske Strand; i|Vei- ret de sen- de sin|Kla- ge- lyd ud: "Hvor|
w: sa- li- ge der! I|löv- tæt- te Lin- de vor|Re- de fandt Hegn, med|
 c2 B B !>!=A2 B B | (=AB) B B !fermata!A3 F | _G2 F F!<(! (F=A)!<)! B c |!f! d4 F3 F | F4 z2 :| %12
w: skul- le vi lan- de, hvor|vin- * ker dit Bud?" saa|raa- ber de fje- * dre- de|Ska- rer til|Gud!|
w: gyn- gen- de Vin- de kom|Blom- * ster- duft- regn; nu|stræk- ker vor Vin- * ge mod|u- kjend- te|Egn!|
!p! d2 | B2 B!<(! B B2!<)! B B | !>!B2!>(! =A3/2 A/!>)! A2 A2 | B2!<(! B =A!<)! B2 B!f! c | %16
w: 3.Naar|grumt sig om- skif- ter dit|jor- di- ske Vel; naar|Stor- men vildt vif- ter, for-|
w: ||||
 d2 d3/2 d/ !fermata!c3 ||[K:Bb]!p! F | B2 B B B2 B c | c2 c B A2 A2 | %20
w: sag ei, o Sjæl!|Bag|Ha- vet staar Ha- ven paa|fred- som- me Strand; paa|
w: ||||
 G2!<(! G G!<)! c2!>(! B3/2 B/!>)! | B2 A G A2!f! A2 | (B2 c2) d2 c2 | c6 B d | c4 c2 c2 | %25
w: hin Si- de Gra- ven er|og- saa et Land, for-|gyldt _ af en|Sol, som for-|dun- kles ei|
w: |||||
 !fermata!B6 |] %26
w: kan!|
w: |
V:3
!p! F,2 | F,2 F,!<(! F, G,2!<)! F, _F, | !>!F,2!>(! F,3/2 F,/!>)! F,2 F,2 | %3
w: 1.Se|Fug- le- nes Ska- re! til|frem- me- de Land de|
w: 2.Med|Sorg vi for- la- de de|Skan- di- ske Skjærm vi|
 F,2 F, F, F,2 F,!f! A, | A,2 B,3/2 B,/ =A,2 z!mf! F, | !>!G,2 G, G, F,2 F, F, | %6
w: suk- ken- de fa- re fra|nor- di- ske Strand; i|Vei- ret de sen- de sin|
w: va- re saa gla- de, saa|sa- li- ge der! I|löv- tæt- te Lin- de vor|
 !>!G,2 G, G,!<(! F,2!<)!!>(! F,2!>)! | F,2 F, F, !>!F,2 F, F, | (G,F,) G, =G, !fermata!F,3 F, | %9
w: Kla- ge- lyd ud: "Hvor|skul- le vi lan- de, hvor|vin- * ker dit Bud?" saa|
w: Re- de fandt Hegn, med|gyn- gen- de Vin- de kom|Blom- * ster- duft- regn; nu|
 _G,2 F, F,!<(! F,2!<)! F, B, |!f! B,4 E,3 E, | D,4 z2 :|!p! F,2 | F,2 F,!<(! F, G,2!<)! F, =E, | %14
w: raa- ber de fje- dre- de|Ska- rer til|Gud!|3.Naar|grumt sig om- skif- ter dit|
w: stræk- ker vor Vin- ge mod|u- kjend- te|Egn!|||
 !>!F,2!>(! F,3/2 F,/!>)! F,2 F,2 | F,2!<(! F, F,!<)! F,2 F,!f! A, | A,2 B,3/2 B,/ !fermata!=A,3 || %17
w: jor- di- ske Vel; naar|Stor- men vildt vif- ter, for-|sag ei, o Sjæl!|
w: |||
[K:Bb]!p! F, | F,2 F, F, G,2 F, B, | B,2 A, G, F,2 ^F,2 | G,2!<(! D, D,!<)! F,2!>(! F,3/2 F,/!>)! | %21
w: Bag|Ha- vet staar Ha- ven paa|fred- som- me Strand; paa|hin Si- de Gra- ven er|
w: ||||
 F,2 F, F, F,2!f! F,2 | (F,2 _A,2) G,2 G,2 | F,6 F, B, | B,4 B,2 A,2 | !fermata!F,6 |] %26
w: og- saa et Land, for-|gyldt _ af en|Sol, som for-|dun- kles ei|kan!|
w: |||||
V:4
!p! B,,2 | B,,2 D,!<(! B,, G,2!<)! F, _F, | !>!F,2!>(! F,3/2 F,/!>)! F,2 E,2 | %3
w: 1.Se|Fug- le- nes Ska- re! til|frem- me- de Land de|
w: 2.Med|Sorg vi for- la- de de|Skan- di- ske Skjærm vi|
 D,2 D, C, B,,2 B,,!f! A,, | D,2 B,,3/2 B,,/ F,2 z!mf! F, | !>!E,2 E, E, D,2 D, D, | %6
w: suk- ken- de fa- re fra|nor- di- ske Strand; i|Vei- ret de sen- de sin|
w: va- re saa gla- de, saa|sa- li- ge der! I|löv- tæt- te Lin- de vor|
 !>!C,2 E, E,!<(! D,2!<)!!>(! B,,2!>)! | =A,,2 B,, D, !>!E,2 D, D, | %8
w: Kla- ge- lyd ud: "Hvor|skul- le vi lan- de, hvor|
w: Re- de fandt Hegn, med|gyn- gen- de Vin- de kom|
 (C,D,) E, =E, !fermata!F,3 F, | _G,2 F, E,!<(! (D,C,)!<)! B,, G, |!f! F,4 F,,3 F,, | B,,4 z2 :| %12
w: vin- * ker dit Bud?" saa|raa- ber de fje- * dre- de|Ska- rer til|Gud!|
w: Blom- * ster- duft- regn; nu|stræk- ker vor Vin- * ge mod|u- kjend- te|Egn!|
!p! B,,2 | B,,2 D,!<(! B,, G,2!<)! F, =E, | !>!F,2!>(! F,3/2 F,/!>)! F,2 _E,2 | %15
w: 3.Naar|grumt sig om- skif- ter dit|jor- di- ske Vel; naar|
w: |||
 D,2!<(! D, C,!<)! B,,2 B,,!f! A,, | D,2 B,,3/2 B,,/ !fermata!F,3 ||[K:Bb]!p! F, | %18
w: Stor- men vildt vif- ter, for-|sag ei, o Sjæl!|Bag|
w: |||
 B,,2 D, B,, G,2 F, =E, | F,2 F, F, F,2 D,2 | G,,2!<(! G,, G,,!<)! A,,2!>(! B,,3/2 D,/!>)! | %21
w: Ha- vet staar Ha- ven paa|fred- som- me Strand; paa|hin Si- de Gra- ven er|
w: |||
 F,2 F, F, F,2!f! E,2 | (D,2 C,2) =B,,2 C,2 | A,,6 B,, B,, | E,4 F,2 F,2 | !fermata!B,,6 |] %26
w: og- saa et Land, for-|gyldt _ af en|Sol, som for-|dun- kles ei|kan!|
w: |||||

